X:1316
T:The Reel of Mullinavat
R:Reel
N:Collected by Kennedy
B:O'Neill's 1316
Z:Transcribed by Trish O'Neil
M:C|
L:1/8
K:Em
ef|gfed BAGF|GBAFE3F|1GBAF GABc|dBcBA Beef:|2GBAF GATBA|Beede2||
ef|:gfef gebe|gebe afdf|1gfef gebe|afde feef:|2gebeg2fg|afdfe2|]
